X:1
T:Title
%%score { ( 1 3 ) | ( 2 4 ) }
L:1/8
M:4/4
K:F
V:1 treble nm="Grand Piano"
V:3 treble 
V:2 bass 
V:4 bass 
V:1
 z4 z2[Q:1/4=104] FG | A2 [FA]2 [FB]2 [Fd]2 | [Fc]6 [FA][EG] | F2 F2 G2 A2 |[M:3/4] [EG]6 | %5
[M:1/4] FG |[M:4/4] A2 [FA]2 [FB]2 [Fd]2 | c6 cd | e2 d2 c2 =B2 | [Ec]6 z2 | c3 c c[FA][FB][Fd] | %11
 c6 z2 | [FA]3 [FA] =BGAB | c6 z2 | A3 F B3 G | c2 f2 [Fe]2 [Ed]2 | [Fc]3 [A,F] [CFA]2 [B,EG]2 | %17
[M:3/4] [A,F]6 |] %18
V:2
 z4 z2 [F,A,][F,B,F] | [F,CF]2 [_E,C]2 [D,B,]2 [B,,B,]2 | [F,A,]6 [F,C][^C,B,] | %3
 [D,A,D]2 [D,A,D]2[K:treble] [G,=B,F]2 [G,B,F]2 |[M:3/4][K:bass] [C,C]6 |[M:1/4] [F,A,][F,B,F] | %6
[M:4/4] [F,CF]2 [_E,C]2 [D,B,]2 [B,,B,]2 | [F,A,F]6 [A,CF][A,CF] | %8
 [G,CG]2 [G,F]2[K:bass] [G,E]2 [G,D]2 | G,4 z4 | [F,A,F]3 [F,A,F] [F,A,F][_E,C][D,B,][B,,B,] | %11
 [F,A,F]2 [F,A,]>[F,A,] [F,A,]2 z2 | [D,D]3 [D,D][K:treble] [G,DF][G,=B,F][G,CF][G,DF] | %13
 [C,C]2 [C,G,]>[C,A,] [C,B,]2 [C,G,][C,C] | [F,CF]3 [A,C] [G,CE]3 [B,CE] | %15
 [A,CF]2[K:bass] [F,A,F]2 [B,,B,]2 [=B,,_A,]2 | [C,A,]3 C, C,2 C,2 |[M:3/4] F,6 |] %18
V:3
 x8 | x8 | x8 | x8 |[M:3/4] x6 |[M:1/4] x2 |[M:4/4] x8 | x8 | x8 | z4 B,2 z2 | x8 | z2 F>F F2 z2 | %12
 x8 | E2 E>F G2 [Ec][EB] | x8 | x8 | x8 |[M:3/4] x6 |] %18
V:4
 x8 | x8 | x8 | x4[K:treble] x4 |[M:3/4][K:bass] x6 |[M:1/4] x2 |[M:4/4] x8 | x8 | x4[K:bass] x4 | %9
 C,6 z2 | x8 | x8 | x4[K:treble] x4 | x8 | x8 | x2[K:bass] x6 | x8 |[M:3/4] x6 |] %18

